frontend/public/svg/files/png.svg

<svg width="142" height="174" viewBox="0 0 142 174" fill="none" xmlns="http://www.w3.org/2000/svg">
<g clip-path="url(#clip0)">
<path d="M140.924 92.0729C141.104 108.577 141.344 125.081 141.431 141.586C141.462 147.419 141.004 153.254 140.971 159.089C140.924 167.458 134.447 172.551 126.834 172.715C111.233 173.05 95.6251 173.412 80.0226 173.335C61.9439 173.245 43.8656 172.764 25.7914 172.292C21.5317 172.075 17.2872 171.622 13.0776 170.935C7.94572 170.225 2.93055 164.35 2.65489 158.765C2.39236 153.388 2.17981 148.005 2.11024 142.623C1.7847 117.581 1.49189 92.5389 1.23198 67.4963C1.07183 52.7852 1.01086 38.0723 0.784428 23.3624C0.718794 19.1921 0.422059 15.0093 2.10688 11.0955C3.01193 8.81365 4.24145 6.67412 5.75744 4.74332C7.62208 2.5249 10.3728 1.6869 13.3125 1.60617C19.3725 1.44012 25.443 1.40048 31.4886 1.00143C52.8235 -0.409041 74.155 0.694564 95.4892 0.852085C100.028 0.885559 103.476 2.37581 106.822 5.55445C113.655 12.0457 120.986 18.0106 128.071 24.2392C130.767 26.6106 133.269 29.207 136.006 31.5279C138.531 33.6688 139.506 36.3652 139.6 39.5353C139.768 45.1457 140.034 50.7547 140.112 56.3671C140.279 68.2702 140.353 80.1748 140.463 92.0795L140.924 92.0729ZM93.6226 9.24315C91.649 9.08695 89.9904 8.86727 88.3293 8.83905C74.1852 8.60099 60.0408 8.38466 45.8958 8.19039C39.5017 8.10178 33.107 8.06378 26.7123 8.0244C23.4628 8.00405 20.2066 7.90219 16.9656 8.07021C12.4408 8.30387 11.0404 9.60808 10.2272 14.043C9.4152 18.2365 9.22276 22.5264 9.65607 26.7758C9.92379 29.2304 10.0585 31.6978 10.0597 34.167C10.1279 73.7965 10.1798 113.426 10.2153 153.056C10.1854 153.955 10.2273 154.855 10.3406 155.747C11.1807 160.885 13.8769 163.938 19.4683 164.163C41.1327 165.036 62.7972 165.03 84.468 164.665C95.4696 164.479 106.472 164.391 117.475 164.265C120.166 164.235 122.864 164.343 125.548 164.195C129.954 163.952 132.264 161.526 132.221 157.054C132.135 148.081 131.925 139.108 131.747 130.136C131.655 125.534 131.559 120.933 131.403 116.333C131.033 105.452 130.45 94.5755 130.283 83.6921C130.097 71.5702 130.283 59.4433 130.292 47.3181C130.292 46.455 130.206 45.5913 130.161 44.7059C129.782 44.6145 129.397 44.5527 129.008 44.5213C122.161 44.6585 115.316 44.8745 108.469 44.9152C106.339 44.9319 104.214 44.6875 102.143 44.1874C97.9138 43.1484 96.582 41.518 96.1344 37.1901C95.7314 33.2849 95.4702 29.3653 95.1197 25.4542C94.6465 20.2061 94.1536 14.9639 93.6226 9.23994V9.24315ZM105.733 36.7923L125.865 35.5454L102.922 14.7185L102.419 15.0098C103.509 22.1731 104.599 29.3377 105.733 36.7891V36.7923Z" fill="black"/>
<path d="M38.7777 126.655C36.5271 126.561 34.4196 126.487 32.314 126.379C31.1953 126.377 30.0788 126.279 28.9766 126.087C26.3978 125.502 25.0353 124.037 24.9972 121.389C24.9766 118.81 25.1645 116.234 25.559 113.686C25.9016 111.394 27.0687 110.435 29.4249 110.193C32.5294 109.876 35.6476 109.694 39.0205 109.434V100.102C36.2094 100.102 33.5355 100.217 30.8748 100.076C26.3145 99.8369 25.3005 98.7828 24.8725 94.1458C24.6687 92.4741 24.5848 90.7899 24.6218 89.1064C24.7865 85.9652 26.2043 84.3952 29.3285 83.9266C32.2118 83.4941 35.1199 83.179 38.0288 82.99C41.2048 82.7839 42.608 84.1018 42.6973 87.2739C42.7787 90.1723 42.7145 93.074 42.7145 96.1069H52.5189C52.5189 93.8242 52.4689 91.714 52.5292 89.6092C52.6428 85.6449 54.0271 84.2272 58.0019 83.857C60.349 83.6404 62.6907 83.3057 65.0423 83.2197C68.7034 83.0884 70.1454 84.2823 70.9041 87.8246C71.3957 90.1218 71.8506 92.4268 72.331 94.726C72.352 94.8244 72.4623 94.9052 72.7629 95.3055C75.7361 95.8234 78.8944 94.9688 82.1899 94.8087C83.0024 93.2794 82.6493 91.7521 82.4819 90.2182C81.9746 85.5891 83.5229 83.4941 88.0982 82.736C90.1985 82.3875 92.329 82.1709 94.4549 82.0212C97.3893 81.8152 98.9278 82.7872 99.7266 85.5924C100.487 88.265 100.963 91.019 101.63 94.0342H114.596C115.048 94.5363 115.43 95.0975 115.731 95.7026C116.334 97.8521 116.917 100.013 117.365 102.2C118.222 106.378 116.643 108.982 112.484 109.954C110.279 110.361 108.053 110.644 105.816 110.803C104.832 110.918 103.847 111.011 102.644 111.137V120.154C103.419 120.199 104.154 120.267 104.894 120.28C107.801 120.335 110.709 120.401 113.617 120.404C115.376 120.404 116.466 121.333 116.663 122.935C117.089 126.041 117.322 129.171 117.36 132.307C117.348 133.28 117.016 134.222 116.414 134.986C115.812 135.752 114.975 136.296 114.032 136.537C112.75 136.94 111.411 137.135 110.067 137.112C106.929 137.043 103.793 136.812 100.661 136.587C98.7099 136.448 97.8763 135.639 97.8639 133.563C97.8462 130.445 98.028 127.324 98.1317 123.987L86.5886 124.748C86.7855 127.048 87.0717 129.161 87.1255 131.279C87.2155 134.855 85.7019 136.82 82.1997 137.349C79.428 137.781 76.6235 137.973 73.8189 137.923C70.2859 137.841 68.5538 135.984 68.2729 132.433C68.0983 130.217 68.0458 127.992 67.948 125.982H56.6006C56.8139 127.36 57.0338 128.338 57.1007 129.324C57.2673 130.881 57.3084 132.45 57.2234 134.014C56.8953 137.507 55.9639 138.388 52.4006 138.847C50.175 139.134 47.9303 139.277 45.706 139.558C40.9935 140.153 38.4273 137.96 38.4693 133.204C38.4824 131.752 38.7973 130.305 38.9037 128.851C38.9075 128.117 38.8655 127.383 38.7777 126.655ZM72.4249 113.115V122.425C76.0446 121.976 79.495 122.715 83.1232 121.703V111.918L72.4249 113.115ZM86.6674 107.317H96.8899V97.2916L86.6674 98.3207V107.317ZM67.1 108.224C66.8828 105.031 66.6885 102.185 66.4942 99.323L56.2888 100.409C56.8828 103.1 57.4952 105.876 58.1548 108.865L67.1 108.224ZM51.7981 113.806H44.02V122.52L51.7981 121.851V113.806Z" fill="black"/>
</g>
<defs>
<clipPath id="clip0">
<rect width="141.113" height="173.93" fill="white" transform="translate(0.363281 0.0107422)"/>
</clipPath>
</defs>
</svg>

<svg xmlns="http://www.w3.org/2000/svg" width="142" height="174" fill="none" viewBox="0 0 142 174"><g fill="#000" clip-path="url(#a)"><path d="M140.924 92.073c.18 16.504.42 33.008.507 49.513.031 5.833-.427 11.668-.46 17.503-.047 8.369-6.524 13.462-14.137 13.626-15.601.335-31.209.697-46.811.62-18.08-.09-36.157-.571-54.232-1.043a115 115 0 0 1-12.713-1.357c-5.132-.71-10.147-6.585-10.423-12.17-.263-5.377-.475-10.76-.545-16.142q-.488-37.563-.878-75.127c-.16-14.71-.221-29.424-.448-44.134-.065-4.17-.362-8.353 1.323-12.266a25.5 25.5 0 0 1 3.65-6.353c1.865-2.218 4.616-3.056 7.556-3.137 6.06-.166 12.13-.206 18.176-.605 21.335-1.41 42.666-.306 64-.149 4.539.034 7.987 1.524 11.333 4.702 6.833 6.492 14.164 12.457 21.249 18.685 2.696 2.372 5.198 4.968 7.935 7.289 2.525 2.14 3.5 4.837 3.594 8.007.168 5.61.434 11.22.512 16.832.167 11.903.241 23.808.351 35.713zM93.623 9.243c-1.974-.156-3.633-.376-5.294-.404q-21.216-.357-42.433-.649c-6.394-.088-12.789-.126-19.184-.166-3.25-.02-6.505-.122-9.746.046-4.525.234-5.926 1.538-6.739 5.973a43.7 43.7 0 0 0-.57 12.733 69 69 0 0 1 .403 7.391q.102 59.445.155 118.889a17 17 0 0 0 .126 2.691c.84 5.138 3.536 8.191 9.127 8.416 21.665.873 43.33.867 65 .502 11.002-.186 22.004-.274 33.007-.4 2.691-.03 5.389.078 8.073-.07 4.406-.243 6.716-2.669 6.673-7.141-.086-8.973-.296-17.946-.474-26.918-.092-4.602-.188-9.203-.344-13.803-.37-10.881-.953-21.757-1.12-32.64-.186-12.123 0-24.25.009-36.375 0-.863-.086-1.727-.131-2.612a7.5 7.5 0 0 0-1.153-.185c-6.847.137-13.692.353-20.539.394a26 26 0 0 1-6.326-.728c-4.23-1.039-5.561-2.669-6.009-6.997-.403-3.905-.664-7.825-1.014-11.736-.474-5.248-.966-10.49-1.497-16.214zm12.11 27.55 20.132-1.248-22.943-20.827-.503.292 3.314 21.78z"/><path d="M38.778 126.655c-2.25-.094-4.358-.168-6.464-.276a19.7 19.7 0 0 1-3.337-.292c-2.58-.585-3.942-2.05-3.98-4.698-.02-2.579.168-5.155.562-7.703.343-2.292 1.51-3.251 3.866-3.493 3.104-.317 6.223-.499 9.595-.759v-9.332c-2.81 0-5.485.115-8.145-.026-4.56-.24-5.574-1.293-6.003-5.93a35 35 0 0 1-.25-5.04c.165-3.14 1.582-4.71 4.706-5.18a105 105 0 0 1 8.7-.936c3.177-.206 4.58 1.112 4.67 4.284.08 2.898.017 5.8.017 8.833h9.804c0-2.283-.05-4.393.01-6.498.114-3.964 1.498-5.382 5.473-5.752 2.347-.217 4.689-.551 7.04-.637 3.661-.132 5.103 1.062 5.862 4.605.492 2.297.947 4.602 1.427 6.901.021.098.131.18.432.58 2.973.517 6.131-.337 9.427-.497.812-1.53.46-3.057.292-4.59-.507-4.63 1.04-6.725 5.616-7.483 2.1-.349 4.231-.565 6.357-.715 2.934-.206 4.473.766 5.272 3.571.76 2.673 1.236 5.427 1.903 8.442h12.966a7.5 7.5 0 0 1 1.135 1.669c.603 2.15 1.186 4.31 1.634 6.497.857 4.178-.722 6.782-4.881 7.754-2.205.407-4.431.69-6.668.849-.984.115-1.969.208-3.172.334v9.017c.775.045 1.51.113 2.25.126 2.907.055 5.815.121 8.723.124 1.759 0 2.849.929 3.046 2.531.426 3.106.659 6.236.697 9.372a4.42 4.42 0 0 1-3.328 4.23 12.5 12.5 0 0 1-3.965.575c-3.138-.069-6.274-.3-9.406-.525-1.951-.139-2.785-.948-2.797-3.024-.018-3.118.164-6.239.268-9.576l-11.543.761c.197 2.3.483 4.413.537 6.531.09 3.576-1.424 5.541-4.926 6.07a49 49 0 0 1-8.381.574c-3.533-.082-5.265-1.939-5.546-5.49-.175-2.216-.227-4.441-.325-6.451H56.601c.213 1.378.433 2.356.5 3.342.166 1.557.207 3.126.122 4.69-.328 3.493-1.26 4.374-4.822 4.833-2.226.287-4.47.43-6.695.711-4.713.595-7.279-1.598-7.237-6.354.013-1.452.328-2.899.435-4.353a18 18 0 0 0-.126-2.196m33.647-13.54v9.31c3.62-.449 7.07.29 10.698-.722v-9.785zm14.242-5.798H96.89V97.292L86.667 98.32zm-19.567.907-.606-8.901-10.205 1.086 1.866 8.456zm-15.302 5.582H44.02v8.714l7.778-.669z"/></g><defs><clipPath id="a"><path fill="#fff" d="M.363.01h141.113v173.93H.363z"/></clipPath></defs></svg>
